svgs/sharp-solid/mobile-screen.svg

<svg xmlns="http://www.w3.org/2000/svg" viewBox="0 0 384 512"><!--! Font Awesome Pro 6.6.0 by @fontawesome - https://fontawesome.com License - https://fontawesome.com/license (Commercial License) Copyright 2024 Fonticons, Inc. --><path d="M16 0L368 0l0 512L16 512 16 0zM144 432l0 32 16 0 64 0 16 0 0-32-16 0-64 0-16 0zM304 64L80 64l0 320 224 0 0-320z"/></svg>

<svg xmlns="http://www.w3.org/2000/svg" viewBox="0 0 384 512"><!--! Font Awesome Pro 6.4.2 by @fontawesome - https://fontawesome.com License - https://fontawesome.com/license (Commercial License) Copyright 2023 Fonticons, Inc. --><path d="M16 0H368V512H16V0zM144 432v32h16 64 16V432H224 160 144zM304 64H80V384H304V64z"/></svg>
